icons/evolvere-blue-folders-flat-vivid-dark-fallback/apps/64/aqualung.svg

<svg xmlns="http://www.w3.org/2000/svg" xmlns:xlink="http://www.w3.org/1999/xlink" viewBox="0 0 64 64"><g color="#000"><path d="m0 4v30 28l2 2h30 30l2-2v-28-30h-32-32" fill="#2278d2"/><path d="m32.35 12.397c-10.588 0-19.16 9.849-19.16 20.438 0 2.388 3.071 1.988 2.656 5.906-.789 7.457 3.818 14.02 11.781 15.344 1.356-.778-5.642-13.875-8.313-16.5-1.818-1.787-3.135-.611-3.906-4.469-1.811-9.06 7.793-16.938 16.938-16.938 9.144 0 18.748 7.879 16.938 16.938-.771 3.858-2.088 2.682-3.906 4.469-2.671 2.625-9.669 15.722-8.313 16.5 7.963-1.327 12.57-7.886 11.781-15.344-.415-3.919 2.656-3.518 2.656-5.906 0-10.588-8.568-20.438-19.16-20.438" fill="#cbdff4"/><path d="m2 0l-2 1v3h32 32v-3l-2-1h-30-30" fill="#67c9ff"/></g><path d="m64 6l-2-2 2-1z" fill="#49a0e4"/><path d="m0 3v3l2-2" fill="#86daff"/><g id="0" transform="matrix(.70024 0 0 .70024-10.635 18.06)" color="#000"><path d="m27.53025 29.90539a12.551543 10.341765 45 0 0 -2.641192 1.796411 12.551543 10.341765 45 0 0 1.562678 16.187731 12.551543 10.341765 45 0 0 16.18773 1.562678 12.551543 10.341765 45 0 0 -1.562676 -16.187731 12.551543 10.341765 45 0 0 -3.990168 -2.844875 8.839115 8.839115 0 0 1 3.659601 7.152253 8.839115 8.839115 0 0 1 -8.838473 8.838475 8.839115 8.839115 0 0 1 -8.838476 -8.838475 8.839115 8.839115 0 0 1 4.460976 -7.666467" fill="#0041a2" fill-opacity=".213"/><circle cx="29.13" cy="33.939" r="3.71" fill="#70e1ff" fill-opacity=".355"/></g><use height="64" width="64" transform="matrix(.53897 0 0 .53897.605-5.591)" xlink:href="#0"/><use xlink:href="#0" transform="matrix(.53897 0 0 .53897 5.555-13.01)" width="64" height="64"/><use xlink:href="#0" transform="matrix(.50606 0 0 .50606 46.819-7.424)" width="64" height="64"/><use xlink:href="#0" transform="matrix(.53897 0 0 .53897 48.777 25.17)" width="64" height="64"/><use xlink:href="#0" transform="matrix(.50606 0 0 .50606 31.351 26.16)" width="64" height="64"/><use xlink:href="#0" transform="matrix(1.30731 0 0 1.30731 17.13-26.883)" width="64" height="64"/><use xlink:href="#0" transform="matrix(.53897 0 0 .53897 11.301 4.663)" width="64" height="64"/><use height="64" width="64" transform="matrix(.58293 0 0 .58293 10.287 31.17)" xlink:href="#0"/><use xlink:href="#0" transform="matrix(.75853 0 0 .75853 11.185-18.772)" width="64" height="64"/></svg>

<?xml version="1.0" encoding="UTF-8" standalone="no"?>
<!-- Created with Inkscape (http://www.inkscape.org/) -->

<svg
   xmlns:dc="http://purl.org/dc/elements/1.1/"
   xmlns:cc="http://creativecommons.org/ns#"
   xmlns:rdf="http://www.w3.org/1999/02/22-rdf-syntax-ns#"
   xmlns:svg="http://www.w3.org/2000/svg"
   xmlns="http://www.w3.org/2000/svg"
   xmlns:xlink="http://www.w3.org/1999/xlink"
   xmlns:sodipodi="http://sodipodi.sourceforge.net/DTD/sodipodi-0.dtd"
   xmlns:inkscape="http://www.inkscape.org/namespaces/inkscape"
   width="64"
   height="64"
   id="svg13094"
   version="1.1"
   inkscape:version="0.91+devel r"
   sodipodi:docname="aqualung.svg">
  <sodipodi:namedview
     id="base"
     pagecolor="#ffffff"
     bordercolor="#666666"
     borderopacity="1.0"
     inkscape:pageopacity="0"
     inkscape:pageshadow="2"
     inkscape:zoom="8.0000005"
     inkscape:cx="32.287624"
     inkscape:cy="31.003006"
     inkscape:document-units="px"
     inkscape:current-layer="svg13094"
     showgrid="false"
     inkscape:snap-bbox="true"
     inkscape:bbox-paths="true"
     inkscape:bbox-nodes="true"
     inkscape:snap-bbox-edge-midpoints="true"
     inkscape:snap-bbox-midpoints="true"
     inkscape:object-paths="true"
     inkscape:snap-intersection-paths="true"
     inkscape:object-nodes="true"
     inkscape:snap-smooth-nodes="true"
     inkscape:snap-midpoints="true"
     inkscape:snap-object-midpoints="true"
     inkscape:snap-center="true"
     showguides="true"
     inkscape:guide-bbox="true"
     inkscape:window-width="1920"
     inkscape:window-height="1023"
     inkscape:window-x="-10"
     inkscape:window-y="35"
     inkscape:window-maximized="1"
     inkscape:snap-global="false"
     fit-margin-top="0"
     fit-margin-left="0"
     fit-margin-right="0"
     fit-margin-bottom="0"
     showborder="true"
     inkscape:showpageshadow="false"
     inkscape:snap-page="true">
    <inkscape:grid
       originy="18px"
       originx="1.6362304e-08px"
       snapvisiblegridlinesonly="true"
       enabled="true"
       visible="true"
       empspacing="5"
       id="grid3075"
       type="xygrid" />
  </sodipodi:namedview>
  <defs
     id="defs13096" />
  <metadata
     id="metadata13099">
    <rdf:RDF>
      <cc:Work
         rdf:about="">
        <dc:format>image/svg+xml</dc:format>
        <dc:type
           rdf:resource="http://purl.org/dc/dcmitype/StillImage" />
        <dc:title></dc:title>
      </cc:Work>
    </rdf:RDF>
  </metadata>
  <path
     inkscape:connector-curvature="0"
     style="color:#000000;fill:#2278d2;fill-opacity:1;fill-rule:nonzero;stroke:none;stroke-width:2.28571415;marker:none;visibility:visible;display:inline;overflow:visible;enable-background:accumulate"
     d="m 0,4 0,30 0,28 2,2 30,0 30,0 2,-2 L 64,34 64,4 32,4 0,4 z"
     id="path3983" />
  <path
     inkscape:connector-curvature="0"
     style="color:#000000;fill:#cbdff4;fill-opacity:1;fill-rule:nonzero;stroke:none;stroke-width:2;marker:none;visibility:visible;display:inline;overflow:visible;enable-background:accumulate"
     d="m 32.350134,12.397106 c -10.588167,0 -19.15625,9.849333 -19.15625,20.4375 0,2.387933 3.070938,1.987637 2.65625,5.90625 -0.789175,7.457342 3.818291,14.016604 11.78125,15.34375 1.356414,-0.777618 -5.641919,-13.875383 -8.3125,-16.5 -1.818415,-1.787115 -3.135163,-0.611129 -3.90625,-4.46875 -1.810592,-9.058078 7.793174,-16.9375 16.9375,-16.9375 9.144326,0 18.748092,7.879422 16.9375,16.9375 -0.771087,3.857621 -2.087835,2.681635 -3.90625,4.46875 -2.670581,2.624617 -9.668914,15.722382 -8.3125,16.5 7.962959,-1.327146 12.570425,-7.886408 11.78125,-15.34375 -0.414688,-3.918613 2.65625,-3.518317 2.65625,-5.90625 0,-10.588167 -8.568083,-20.4375 -19.15625,-20.4375 z"
     id="path3184" />
  <path
     id="path6502"
     d="M 2 0 L 0 1 L 0 4 L 32 4 L 64 4 L 64 1 L 62 0 L 32 0 L 2 0 z "
     style="color:#000000;fill:#67c9ff;fill-opacity:1;fill-rule:nonzero;stroke:none;marker:none;visibility:visible;display:inline;overflow:visible;enable-background:accumulate" />
  <path
     inkscape:connector-curvature="0"
     style="fill:#49a0e4;fill-opacity:1"
     id="path3028"
     d="M 64,6 62,4 64,3 z" />
  <g
     transform="translate(-0.62500009,0.082283)"
     inkscape:export-ydpi="90"
     inkscape:export-xdpi="90"
     inkscape:export-filename="folder.png"
     id="g3043" />
  <g
     style="fill:#ffffff"
     inkscape:label="#g3701"
     transform="matrix(1.0385892,0,0,1.0385892,1214.7222,1878.8121)"
     id="scalable" />
  <path
     id="path4298"
     d="M 0,3 0,6 2,4 Z"
     style="fill:#86daff;fill-opacity:1;fill-rule:nonzero"
     inkscape:connector-curvature="0"
     sodipodi:nodetypes="cccc" />
  <g
     id="g3275"
     transform="matrix(0.70024336,0,0,0.70024336,-10.634822,18.055035)">
    <path
       inkscape:connector-curvature="0"
       style="color:#000000;display:inline;overflow:visible;visibility:visible;fill:#0041a2;fill-opacity:0.21288015;fill-rule:nonzero;stroke:none;stroke-width:1.28899407;marker:none;enable-background:accumulate"
       d="m 27.53025,29.90539 a 12.551543,10.341765 45 0 0 -2.641192,1.796411 12.551543,10.341765 45 0 0 1.562678,16.187731 12.551543,10.341765 45 0 0 16.18773,1.562678 12.551543,10.341765 45 0 0 -1.562676,-16.187731 12.551543,10.341765 45 0 0 -3.990168,-2.844875 8.8391149,8.8391149 0 0 1 3.659601,7.152253 8.8391149,8.8391149 0 0 1 -8.838473,8.838475 8.8391149,8.8391149 0 0 1 -8.838476,-8.838475 8.8391149,8.8391149 0 0 1 4.460976,-7.666467 z"
       id="path3914-0" />
    <circle
       id="path3912-7"
       style="color:#000000;display:inline;overflow:visible;visibility:visible;fill:#70e1ff;fill-opacity:0.3550984;fill-rule:nonzero;stroke:none;stroke-width:0.41977584;marker:none;enable-background:accumulate"
       cx="29.129515"
       cy="33.939392"
       r="3.7103291" />
  </g>
  <use
     height="100%"
     width="100%"
     transform="matrix(0.53896702,0,0,0.53896702,0.60539404,-5.5905647)"
     id="use4320"
     xlink:href="#g3275"
     y="0"
     x="0" />
  <use
     x="0"
     y="0"
     xlink:href="#g3275"
     id="use4324"
     transform="matrix(0.53896702,0,0,0.53896702,5.5553761,-13.014947)"
     width="100%"
     height="100%" />
  <use
     x="0"
     y="0"
     xlink:href="#g3275"
     id="use4326"
     transform="matrix(0.50605774,0,0,0.50605774,46.818889,-7.4237926)"
     width="100%"
     height="100%" />
  <use
     x="0"
     y="0"
     xlink:href="#g3275"
     id="use4328"
     transform="matrix(0.53896702,0,0,0.53896702,48.777276,25.168818)"
     width="100%"
     height="100%" />
  <use
     x="0"
     y="0"
     xlink:href="#g3275"
     id="use4330"
     transform="matrix(0.50605774,0,0,0.50605774,31.350929,26.163778)"
     width="100%"
     height="100%" />
  <use
     x="0"
     y="0"
     xlink:href="#g3275"
     id="use4332"
     transform="matrix(1.3073055,0,0,1.3073055,17.127249,-26.882636)"
     width="100%"
     height="100%" />
  <use
     x="0"
     y="0"
     xlink:href="#g3275"
     id="use4334"
     transform="matrix(0.53896702,0,0,0.53896702,11.300618,4.6627218)"
     width="100%"
     height="100%" />
  <use
     height="100%"
     width="100%"
     transform="matrix(0.58292884,0,0,0.58292884,10.286802,31.174598)"
     id="use4322"
     xlink:href="#g3275"
     y="0"
     x="0" />
  <use
     x="0"
     y="0"
     xlink:href="#g3275"
     id="use4293"
     transform="matrix(0.75852777,0,0,0.75852777,11.184515,-18.771809)"
     width="100%"
     height="100%" />
</svg>
